!!! OTL: Berkowitz496
!!! Chapter: 1
!!! Section: IV
!!! Page: 123
!!! Mode: 
!!! Encoder: DJB
**kern
*staff1
*I"Piano
=1-
*clefG2
*k[b-e-]
*g:
*M9/16
[8.dd\L
16dd\L]
16cc#\
16gg\
16bb-\
16aa\
16gg\JJ
=2
[8.dd\L
16dd\L]
16cc#\
16gg\
16bb-\
16aa\
16gg\JJ
=3
8.ee-\L
16gg\L
16ff#\
16gg\
16ccc\
16bbn\
16ccc\JJ
=4
16aa\LL
16ccc\
16eee-\
16ddd\
16ff#\
16ddd\
16ccc\
16bb-\
16aa\JJ
=5
!!linebreak:original
[8.dd\L
16dd\L]
16cc#\
16dd\
16ee-\
16gg\
16ccc\JJ
=6
8.ff\L
16aa\L
16bb-\
16ccc\
16eee-\
16ddd\
16ccc#\JJ
=7
16ddd\LL
16bb-\
16gg\
16ee-\
16ddd\
16bb-\
16ccc\
16aa\
16ff#\JJ
=8
16bb-\LL
16gg\
16ee-\
16cc\
16bb-\
16gg\
16aa\
16ff#\
16cc\JJ
=9
8b-\
16r
16dd\LL
16cc#\
16gg\
16bb-\
16aa\
16gg\JJ
=10
!!linebreak:original
8ee-\
16r
16ee-\LL
16dd\
16gg\
16bb-\
16aa\
16gg\JJ
=11
16dd\LL
16gg\
16ff\
16ee-\
16cc\
16ee-\
16dd\
16cc#\
16dd\JJ
=12
16cc\LL
16aa\
16ff#\JJ
4dd\
8r
=13
16b-\LL
16dd\
16gg\
16cc\
16ee-\
16gg\
16dd\
16ff#\
16aa\JJ
=14
8gg\
16r
16gg\LL
16aa\
16dd\
16cc#\
16dd\
16b-\JJ
=15
8.g/
8r
4r
==
*-
